dist/assets/img/car.svg

<svg width="35" height="21" viewBox="0 0 35 21" fill="none" xmlns="http://www.w3.org/2000/svg">
<path d="M0 12.5026C0.265399 11.8797 0.737828 11.6663 1.40817 11.6727C3.94633 11.6964 6.4854 11.6809 9.02448 11.6827C9.6629 11.6827 10.1408 12.0767 10.1992 12.6394C10.2703 13.3344 9.78511 13.867 9.06005 13.8689C7.13659 13.8743 5.21222 13.8689 3.28785 13.8689C2.6622 13.8689 2.03473 13.8415 1.40999 13.8771C0.736915 13.9154 0.268135 13.6682 0 13.048V12.5026Z" fill="#201311"/>
<path d="M5.75586 1.47353C5.79052 1.2592 5.80784 1.10233 5.8425 0.948201C5.97474 0.359034 6.36783 0.0279687 6.97615 0.00608016C7.34096 -0.0076002 7.70577 0.00608016 8.07058 0.00608016C12.7201 0.00608016 17.3693 0.00608016 22.0182 0.00608016C22.2559 0.00104204 22.4925 0.040321 22.7159 0.121908C23.2047 0.322553 23.4291 0.831462 23.3069 1.40421C22.2294 6.43311 21.1502 11.4614 20.0692 16.4891C19.9086 17.2351 19.5603 17.5078 18.806 17.5124C18.3655 17.5124 17.9241 17.5124 17.4708 17.5124C17.6386 15.9291 17.2519 14.5474 16.2086 13.3946C15.0229 12.0813 13.5208 11.5268 11.7561 11.7311C11.5509 11.7548 11.446 11.7174 11.321 11.5332C11.0876 11.1893 10.793 10.8893 10.5002 10.5445C11.2043 10.0484 11.6676 9.34429 11.6712 8.4122C11.6749 7.48012 11.2271 6.76326 10.4473 6.21787C10.5814 6.10478 10.7027 6.00811 10.8176 5.90414C11.1959 5.567 11.4644 5.12411 11.5884 4.63273C11.7124 4.14136 11.686 3.6241 11.5129 3.14784C11.3397 2.67158 11.0277 2.25821 10.6171 1.96119C10.2065 1.66417 9.71622 1.49715 9.20969 1.48174C8.19644 1.45985 7.18135 1.47353 6.16809 1.47261L5.75586 1.47353Z" fill="#201311"/>
<path d="M33.6673 17.1895C33.7411 13.733 30.8783 11.4958 28.1185 11.6873C25.4116 11.8752 23.0112 14.2793 23.376 17.4887C23.0367 17.4887 22.6929 17.5324 22.3646 17.4796C21.7699 17.3838 21.4306 16.7663 21.5684 16.107C21.7179 15.3947 21.8739 14.6833 22.0244 13.971C22.6385 11.1012 23.2523 8.23102 23.8658 5.36058C24.0007 4.73128 24.3792 4.38836 25.003 4.38654C26.2562 4.38654 27.512 4.3537 28.7606 4.43487C31.8907 4.63734 34.593 7.30684 34.9715 10.4296C35.0864 11.3717 34.8274 12.2354 34.6523 13.1219C34.4279 14.2601 34.1753 15.3928 33.9226 16.5247C33.8697 16.7536 33.7539 16.967 33.6673 17.1895Z" fill="#201311"/>
<path d="M8.75635 16.791C8.75971 15.8228 9.14582 14.8952 9.83044 14.2106C10.5151 13.526 11.4426 13.1399 12.4108 13.1365C14.4173 13.1456 16.0726 14.8128 16.0544 16.8047C16.0524 17.7722 15.6662 18.6993 14.9807 19.3821C14.2952 20.0649 13.3665 20.4474 12.399 20.4455C11.4314 20.4435 10.5043 20.0573 9.82152 19.3718C9.13873 18.6863 8.75624 17.7576 8.75817 16.7901L8.75635 16.791Z" fill="#201311"/>
<path d="M32.0932 16.7846C32.0916 17.5035 31.8772 18.2058 31.4769 18.8029C31.0766 19.4001 30.5085 19.8654 29.8442 20.14C29.1798 20.4147 28.449 20.4865 27.7439 20.3464C27.0388 20.2063 26.391 19.8605 25.8821 19.3527C25.3733 18.8449 25.0262 18.1978 24.8847 17.4929C24.7432 16.7881 24.8135 16.0572 25.0869 15.3923C25.3603 14.7274 25.8244 14.1583 26.4207 13.7569C27.0171 13.3554 27.719 13.1396 28.4379 13.1365C30.4379 13.1201 32.0932 14.7654 32.0932 16.7846Z" fill="#201311"/>
<path d="M5.86808 7.3041C6.91691 7.3041 7.96574 7.3041 9.01365 7.3041C9.71682 7.3041 10.1993 7.75007 10.2057 8.38758C10.2111 9.04059 9.72229 9.49113 8.99997 9.49204C6.89137 9.49204 4.78308 9.49204 2.67508 9.49204C1.95732 9.48839 1.44932 9.03238 1.45662 8.39396C1.46392 7.75555 1.95915 7.30866 2.68876 7.30774C3.74732 7.30227 4.80709 7.30106 5.86808 7.3041Z" fill="#201311"/>
<path d="M6.56753 5.11525C5.74671 5.11525 4.92589 5.11525 4.10506 5.11525C3.40554 5.11525 2.91943 4.65923 2.91943 4.02082C2.91943 3.3824 3.39733 2.92639 4.09777 2.92639C5.73941 2.92274 7.37893 2.92274 9.01631 2.92639C9.7131 2.92639 10.1974 3.3824 10.2019 4.02082C10.2065 4.65923 9.7204 5.11525 9.02361 5.11525C8.20735 5.11798 7.38744 5.11525 6.56753 5.11525Z" fill="#201311"/>
<path d="M7.43015 15.3253C7.37543 16.0741 7.32345 16.7709 7.26964 17.496C7.20554 17.5052 7.141 17.511 7.07629 17.5133C6.08674 17.5133 5.09628 17.5188 4.10583 17.5133C3.285 17.5087 2.82899 16.9661 2.94482 16.1571C3.06794 15.3253 3.06794 15.3253 3.90518 15.3253H7.43015Z" fill="#201311"/>
</svg>

<svg width="35" height="21" fill="none" xmlns="http://www.w3.org/2000/svg"><path d="M0 12.503c.265-.623.738-.837 1.408-.83 2.538.023 5.077.008 7.616.01.639 0 1.117.394 1.175.956.071.695-.414 1.228-1.139 1.23-1.923.005-3.848 0-5.772 0-.626 0-1.253-.027-1.878.008-.673.038-1.142-.209-1.41-.829v-.545zM5.756 1.474c.035-.215.052-.372.087-.526.132-.589.525-.92 1.133-.942.365-.014.73 0 1.095 0h13.947a1.91 1.91 0 01.698.116c.489.2.713.71.59 1.282a18322.03 18322.03 0 01-3.237 15.085c-.16.746-.509 1.019-1.263 1.023h-1.335c.168-1.583-.22-2.965-1.262-4.117-1.186-1.314-2.688-1.868-4.453-1.664-.205.024-.31-.014-.435-.198-.233-.344-.528-.644-.82-.989.703-.496 1.167-1.2 1.17-2.132.004-.932-.444-1.649-1.224-2.194.134-.113.256-.21.37-.314A2.533 2.533 0 009.21 1.482c-1.014-.022-2.029-.008-3.042-.01l-.412.002zM33.667 17.19c.074-3.457-2.789-5.694-5.549-5.503a5.162 5.162 0 00-4.742 5.802c-.34 0-.683.043-1.011-.01-.595-.095-.934-.713-.797-1.372.15-.712.306-1.424.456-2.136l1.842-8.61c.135-.63.513-.973 1.137-.974 1.253 0 2.509-.033 3.758.048 3.13.202 5.832 2.872 6.21 5.995.115.942-.144 1.805-.319 2.692-.224 1.138-.477 2.27-.73 3.403-.052.229-.168.442-.255.665z" fill="#201311"/><path d="M8.756 16.791a3.667 3.667 0 013.655-3.655c2.006.01 3.662 1.677 3.643 3.669a3.648 3.648 0 01-7.296-.015l-.002.001zm23.337-.006a3.639 3.639 0 11-3.655-3.649c2-.016 3.655 1.63 3.655 3.649zM5.868 7.304h3.146c.703 0 1.185.446 1.192 1.084C10.21 9.04 9.722 9.49 9 9.492H2.675c-.718-.004-1.226-.46-1.218-1.098.007-.638.502-1.085 1.232-1.086 1.058-.006 2.118-.007 3.18-.004zm.7-2.189H4.105c-.7 0-1.186-.456-1.186-1.094 0-.639.478-1.095 1.179-1.095 1.641-.003 3.28-.003 4.918 0 .697 0 1.181.456 1.186 1.095.005.638-.482 1.094-1.178 1.094-.817.003-1.637 0-2.456 0zm.862 10.21l-.16 2.171a1.57 1.57 0 01-.194.017c-.99 0-1.98.006-2.97 0-.821-.004-1.277-.547-1.161-1.356.123-.832.123-.832.96-.832H7.43z" fill="#201311"/></svg>
